X: 4
T: Cooley's
Z: Edgar Bolton
S: https://thesession.org/tunes/1#setting20796
R: reel
M: 4/4
L: 1/8
K: Edor
D |: EBBA "slide"B3 B | B2 AB dBAD | (3FED AD BDAD | (3FED A=c BAFD |
EBBA "slide" B3 B | B2 AB defg | afec dBAF |1 EGFD E3  D :|2 EGFD E3 d ||
|: eB (3BBB efgf | eB (3BBB fedB | (3ABA FB (3ABA FB | ADFA Bcdf |
eB (3BBB efgf | eB (3BBB fedB | (3ABA FB dfec | dBAF EFGB :|
|: eB (3BBB eBfB | eB (3BBB fedc | BE (3EEE BEdE | BE (3BBB BAFB |
eB (3BBB eBfB | eB (3BBB fecA | d3 e fdec | dBAF EFGB :|
